libs/ui/packages/crypto-icons/src/svg/AEON.svg

<svg width="24" height="24" viewBox="0 0 24 24" fill="none">
<path d="M10.506 12.2511C10.1332 12.2511 9.85121 12.3141 9.65621 12.4333C9.46871 12.5496 9.37421 12.7258 9.37421 12.9568C9.37421 13.1293 9.43271 13.2688 9.54296 13.3678C9.65621 13.4676 9.81521 13.5171 10.0132 13.5171C10.3207 13.5171 10.5772 13.4211 10.7812 13.2321C10.986 13.0401 11.1247 12.7716 11.1937 12.4273L11.2252 12.2511H10.5052H10.506ZM14.454 10.6243C14.3407 10.5253 14.1817 10.4758 13.9845 10.4758C13.6762 10.4758 13.4197 10.5718 13.2157 10.7608C13.0117 10.9528 12.8722 11.2213 12.804 11.5656L12.7717 11.7411L13.4917 11.7381C13.8645 11.7381 14.1465 11.6751 14.3407 11.5558C14.5282 11.4396 14.6227 11.2641 14.6227 11.0323C14.6227 10.8598 14.568 10.7241 14.454 10.6243Z" fill="#134451"/>
<path d="M20.2305 11.0421C19.9845 8.81908 16.098 7.44358 11.553 7.97083C7.00797 8.49733 3.52347 10.7271 3.76947 12.9508C4.01622 15.1738 7.89972 16.5486 12.447 16.0221C16.9957 15.4948 20.4772 13.2651 20.2305 11.0421ZM15.4755 12.1551C15.015 12.4836 14.3437 12.6456 13.4625 12.6493L12.6067 12.6523L12.5805 12.7746C12.5727 12.8014 12.5684 12.8292 12.5677 12.8571C12.564 12.8743 12.564 12.8908 12.564 12.9043C12.564 13.0933 12.6517 13.2321 12.8235 13.3243C12.996 13.4211 13.251 13.4668 13.5855 13.4668C13.9027 13.4668 14.208 13.4308 14.496 13.3648C14.781 13.2981 15.057 13.1991 15.3195 13.0663L15.102 14.2326C14.775 14.3121 14.4607 14.3751 14.1495 14.4148C13.8499 14.4578 13.5476 14.4801 13.245 14.4816C12.8302 14.4816 12.4867 14.4313 12.2107 14.3256C11.9257 14.2161 11.6077 13.9776 11.4495 13.6363C11.156 13.9162 10.8159 14.1426 10.4445 14.3053C10.1 14.4524 9.72926 14.528 9.35472 14.5273C8.88222 14.5311 8.50872 14.4148 8.24322 14.1861C7.97397 13.9581 7.84122 13.6393 7.83822 13.2388C7.83447 12.6223 8.06472 12.1551 8.52222 11.8303C8.98197 11.5026 9.65322 11.3406 10.5352 11.3368L11.3902 11.3338L11.4165 11.2108C11.4245 11.184 11.429 11.1563 11.43 11.1283C11.433 11.1118 11.433 11.0953 11.433 11.0818C11.433 10.8928 11.3452 10.7541 11.1735 10.6611C11.0017 10.5651 10.746 10.5186 10.4115 10.5186C10.0942 10.5186 9.78897 10.5553 9.50097 10.6213C9.21597 10.6873 8.93997 10.7863 8.67747 10.9198L8.89497 9.75358C9.22197 9.67408 9.53622 9.61108 9.84747 9.57133C10.1471 9.52839 10.4493 9.50608 10.752 9.50458C11.1675 9.50458 11.511 9.55483 11.787 9.66058C12.072 9.77008 12.3892 10.0086 12.5482 10.3498C12.8416 10.0697 13.1817 9.84307 13.5532 9.68008C13.8974 9.53309 14.2679 9.45756 14.6422 9.45808C15.1155 9.45508 15.4882 9.57058 15.7537 9.79933C16.0237 10.0281 16.1557 10.3468 16.1587 10.7473C16.1625 11.3601 15.936 11.8303 15.4755 12.1551Z" fill="#134451"/>
<path d="M12.399 16.2868C11.7412 16.3633 11.0895 16.3993 10.4572 16.3993C8.9527 16.3993 7.54645 16.1878 6.3757 15.773C5.8916 15.6065 5.42849 15.3842 4.9957 15.1108C4.83595 15.9493 4.9432 16.688 5.35495 17.2378C6.5377 18.818 9.84745 18.3148 13.122 16.1878C12.882 16.2238 12.642 16.2568 12.399 16.2868ZM11.631 7.73901C13.851 7.48027 15.9907 7.66251 17.6535 8.25201C18.1381 8.41869 18.6017 8.64118 19.035 8.91501C19.1932 8.07651 19.0867 7.33777 18.675 6.78802C17.4915 5.20777 14.1825 5.71102 10.908 7.83801C11.148 7.79826 11.391 7.76526 11.631 7.73901Z" fill="#134451"/>
<path d="M9.216 18.2083C8.783 18.312 8.34089 18.373 7.896 18.3906C8.2305 19.2756 8.7525 19.8951 9.4425 20.1268C11.109 20.6871 13.2645 18.8518 14.7915 15.8128C14.4315 15.9126 14.0587 16.0018 13.683 16.0783C12.1912 17.1321 10.6357 17.8776 9.216 18.2083ZM14.9145 5.79355C15.3477 5.6919 15.7898 5.63312 16.2345 5.61805C15.903 4.73305 15.3847 4.11055 14.694 3.8758C13.0312 3.3088 10.866 5.1343 9.32925 8.1628C9.68925 8.0638 10.062 7.97755 10.4407 7.9048C11.9325 6.8548 13.4917 6.1183 14.9145 5.79355Z" fill="#134451"/>
</svg>

<svg width="24" height="24" viewBox="0 0 24 24" fill="none"><path fill="#134451" d="M10.506 12.251q-.558.002-.85.182a.58.58 0 0 0-.282.524.53.53 0 0 0 .169.41q.171.15.47.15.462 0 .768-.285.309-.288.413-.805l.031-.176zm3.948-1.627q-.171-.148-.47-.148-.462 0-.768.285-.308.288-.412.805l-.032.175.72-.003q.557-.002.849-.182a.58.58 0 0 0 .282-.524.51.51 0 0 0-.169-.408"/><path fill="#134451" d="M20.23 11.042c-.245-2.223-4.132-3.598-8.677-3.071s-8.03 2.756-7.784 4.98c.247 2.223 4.13 3.598 8.678 3.071s8.03-2.757 7.784-4.98m-4.754 1.113c-.461.329-1.132.49-2.014.494l-.855.003-.026.123a.3.3 0 0 0-.013.082q-.005.027-.004.047a.45.45 0 0 0 .26.42q.259.144.761.143.478-.002.911-.102.429-.1.823-.299l-.217 1.167c-.327.08-.641.142-.953.182q-.45.064-.904.067-.621.001-1.034-.156c-.285-.11-.603-.348-.761-.69-.294.28-.634.507-1.005.67a2.8 2.8 0 0 1-1.09.221q-.711.004-1.112-.34c-.269-.229-.402-.548-.405-.948-.004-.617.227-1.084.684-1.409q.69-.49 2.013-.493l.855-.003.026-.123a.3.3 0 0 0 .014-.083q.004-.025.003-.046a.45.45 0 0 0-.26-.42q-.258-.144-.761-.143-.478.002-.911.102a3.6 3.6 0 0 0-.824.299l.218-1.166c.327-.08.641-.143.952-.183q.45-.064.905-.066.622-.002 1.035.156c.285.11.602.348.761.689a3.5 3.5 0 0 1 1.005-.67 2.8 2.8 0 0 1 1.09-.222q.711-.003 1.11.341.403.347.406.948.007.92-.683 1.408"/><path fill="#134451" d="M12.399 16.287a17 17 0 0 1-1.942.112c-1.504 0-2.91-.211-4.081-.626a6.6 6.6 0 0 1-1.38-.662c-.16.838-.053 1.577.359 2.127 1.183 1.58 4.492 1.077 7.767-1.05q-.36.054-.723.099m-.768-8.548c2.22-.259 4.36-.076 6.023.513.484.167.948.39 1.381.663.158-.838.052-1.577-.36-2.127-1.184-1.58-4.493-1.077-7.767 1.05q.362-.06.723-.099"/><path fill="#134451" d="M9.216 18.208a7 7 0 0 1-1.32.183c.334.885.856 1.504 1.547 1.736 1.666.56 3.822-1.275 5.349-4.314-.36.1-.733.189-1.109.265-1.492 1.054-3.047 1.8-4.467 2.13m5.699-12.414q.651-.152 1.32-.176c-.332-.885-.85-1.507-1.541-1.742-1.663-.567-3.828 1.258-5.365 4.287q.542-.15 1.112-.258c1.491-1.05 3.05-1.787 4.474-2.111"/></svg>
